hero/solid/lock-closed.svg

<svg width="24" height="24" viewBox="0 0 24 24" fill="none" xmlns="http://www.w3.org/2000/svg">
<path fill-rule="evenodd" clip-rule="evenodd" d="M12 1.5C9.10051 1.5 6.75 3.85051 6.75 6.75V9.75C5.09315 9.75 3.75 11.0931 3.75 12.75V19.5C3.75 21.1569 5.09315 22.5 6.75 22.5H17.25C18.9069 22.5 20.25 21.1569 20.25 19.5V12.75C20.25 11.0931 18.9069 9.75 17.25 9.75V6.75C17.25 3.85051 14.8995 1.5 12 1.5ZM15.75 9.75V6.75C15.75 4.67893 14.0711 3 12 3C9.92893 3 8.25 4.67893 8.25 6.75V9.75H15.75Z" fill="#0F172A"/>
</svg>

<svg viewBox="0 0 24 24" xmlns="http://www.w3.org/2000/svg"><path fill-rule="evenodd" d="M12 1.5v0c-2.9 0-5.25 2.35-5.25 5.25v3 0c-1.66 0-3 1.34-3 3v6.75 0c0 1.65 1.34 3 3 3h10.5v0c1.65 0 3-1.35 3-3v-6.75 0c0-1.66-1.35-3-3-3v-3c0-2.9-2.35-5.25-5.25-5.25Zm3.75 8.25v-3 0C15.75 4.67 14.07 3 12 3 9.92 3 8.25 4.67 8.25 6.75v3h7.5Z"/></svg>
